X:1
T: Mrs MacIntyre of Boglily
C:Bruce Shawyer
R:Reel
Q:232
K:Em
M:4/4
L:1/8
B2|:"Em"E2EF E2D2|EFGA B4|"D"A3B AGF2|"C"G3A GFE^D|
"Em"E2EF E2D2|EFGA B4|"Bm"BAGF GFE^D|"Em"E4 E3B:|
|:"Eme2ef e2d2|BAGF E4|"D"d3e dBA2|"Am/C"c3d cAG2|
"Em"e2ef e2d2|BAGF E4|"Bm"BAGF GFE^D|1"Em"E4 E2B2:|2"Em"E4 E2||
